storage/app/icons/tabler/filled/play-card-j.svg

<!--
unicode: "10078"
version: "3.20"
-->
<svg
  xmlns="http://www.w3.org/2000/svg"
  width="24"
  height="24"
  viewBox="0 0 24 24"
  fill="currentColor"
>
  <path d="M17 2a3 3 0 0 1 3 3v14a3 3 0 0 1 -3 3h-10a3 3 0 0 1 -3 -3v-14a3 3 0 0 1 3 -3zm.01 16h-.01a1 1 0 0 0 0 2h.01a1 1 0 0 0 0 -2m-3.01 -10h-4a1 1 0 0 0 -1 1l.007 .117a1 1 0 0 0 .993 .883h3v3a1 1 0 0 1 -2 0a1 1 0 0 0 -2 0a3 3 0 0 0 6 0v-4a1 1 0 0 0 -1 -1m-6.99 -4h-.01a1 1 0 1 0 0 2h.01a1 1 0 1 0 0 -2" />
</svg>

<svg xmlns="http://www.w3.org/2000/svg" width="24" height="24" fill="currentColor" viewBox="0 0 24 24"><path d="M17 2a3 3 0 0 1 3 3v14a3 3 0 0 1-3 3H7a3 3 0 0 1-3-3V5a3 3 0 0 1 3-3zm.01 16H17a1 1 0 0 0 0 2h.01a1 1 0 0 0 0-2M14 8h-4a1 1 0 0 0-1 1l.007.117A1 1 0 0 0 10 10h3v3a1 1 0 0 1-2 0 1 1 0 0 0-2 0 3 3 0 0 0 6 0V9a1 1 0 0 0-1-1M7.01 4H7a1 1 0 1 0 0 2h.01a1 1 0 1 0 0-2"/></svg>
